!!!!SEGMENT: Mou3004-En_venant_de_Lyon.krn
!!!id: Mou3004
!!!AGN: Chanson
!!!SCT: MacCracken (2014)
!!!voices: 4
!!!COM: Jean Mouton
!!!OTL: En venant de Lyon
**kern	**kern	**kern	**kern
*part4	*part3	*part2	*part1
*staff4	*staff3	*staff2	*staff1
*I"Bassus	*I"Tenor	*I"Altus	*I"Superius
*I'B	*I'T	*I'A	*I'S
*clefF4	*clefGv2	*clefG2	*clefG2
*k[b-]	*k[b-]	*k[b-]	*k[b-]
*F:	*F:	*F:	*F:
*M2/1	*M2/1	*M2/1	*M2/1
*met(C|)	*met(C|)	*met(C|)	*met(C|)
=1	=1	=1	=1
!LO:TX:a:t=Canon&colon; bassus/tenor/altus/superius at successive fourths	!	!	!
1D	1r	0r	0r
1E	1G	.	.
=2	=2	=2	=2
1F	1A	1c	1r
1r	1B-y	1d	1f
=3	=3	=3	=3
1r	0r	1e	1g
1F	.	1r	1a
=4	=4	=4	=4
1G	1B-y	1r	0r
1A	1c	1e	.
=5	=5	=5	=5
2r	1d	1f	1a
2D	.	.	.
2G	2r	1g	1b-y
2G	2G	.	.
=6	=6	=6	=6
1A	2c	2r	1cc
.	2c	2c	.
2r	1d	2f	2r
2D	.	2f	2f
=7	=7	=7	=7
2.G	2r	1g	2b-y
.	2G	.	2b-y
4F	.	.	.
2F	2.c	2r	1cc
2E	.	2c	.
.	4B-y	.	.
=8	=8	=8	=8
2D	2B-y	2.f	2r
2D	2A	.	2f
.	.	4e	.
2.G	2G	2e	2.b-y
.	2G	2d	.
4F	.	.	4a
=9	=9	=9	=9
2F	2.c	2c	2a
2E	.	2c	2g
.	4B-y	.	.
1D	2B-y	2.f	2f
.	2A	.	2f
.	.	4e	.
=10	=10	=10	=10
0r	1G	2e	2.b-y
.	.	2d	.
.	.	.	4a
.	1r	1c	2a
.	.	.	2g
=11	=11	=11	=11
1d	1r	0r	1f
2c	1g	.	1r
2B-y	.	.	.
=12	=12	=12	=12
1A	2f	1cc	1r
.	2e	.	.
2.d	1d	2b-y	1ff
.	.	2a	.
4c	.	.	.
=13	=13	=13	=13
2c	2.g	1g	2ee
2B-y	.	.	2dd
.	4f	.	.
1A	2f	2.cc	1cc
.	2e	.	.
.	.	4b-y	.
=14	=14	=14	=14
2r	1d	2b-y	2.ff
2D	.	2a	.
.	.	.	4ee
2.G	2r	1g	2ee
.	2G	.	2dd
4F	.	.	.
=15	=15	=15	=15
1A	2.c	2r	1cc
.	.	2c	.
.	4B-y	.	.
2r	1d	2.f	2r
2D	.	.	2f
.	.	4e	.
=16	=16	=16	=16
2.G	2r	1g	2.b-y
.	2G	.	.
4F	.	.	4a
2F	2.c	2r	1cc
2E	.	2c	.
.	4B-y	.	.
=17	=17	=17	=17
2D	2B-y	2.f	2r
2D	2A	.	2f
.	.	4e	.
2.G	2G	2e	2.b-y
.	2G	2d	.
4F	.	.	4a
=18	=18	=18	=18
2F	2.c	2c	2a
2E	.	2c	2g
.	4B-y	.	.
1D	2B-y	2.f	2f
.	2A	.	2f
.	.	4e	.
=19	=19	=19	=19
0r	1G	2e	2.b-y
.	.	2d	.
.	.	.	4a
.	1r	1c	2a
.	.	.	2g
=20	=20	=20	=20
1d	1r	0r	1f
2c	1g	.	1r
2B-y	.	.	.
=21	=21	=21	=21
1A	2f	1cc	1r
.	2e	.	.
2.d	1d	2b-y	1ff
.	.	2a	.
4c	.	.	.
=22	=22	=22	=22
2c	2.g	1g	2ee
2B-y	.	.	2dd
.	4f	.	.
1A	2f	2.cc	1cc
.	2e	.	.
.	.	4b-y	.
=23	=23	=23	=23
2r	1d	2b-y	2.ff
2D	.	2a	.
.	.	.	4ee
2.G	2r	1g	2ee
.	2G	.	2dd
4F	.	.	.
=24	=24	=24	=24
1A	2.c	2r	1cc
.	.	2c	.
.	4B-y	.	.
1r	1d	2.f	2r
.	.	.	2f
.	.	4e	.
=25	=25	=25	=25
1G	1r	1g	2.b-y
.	.	.	4a
2A	1c	1r	1cc
2c	.	.	.
=26	=26	=26	=26
2B-y	2d	1f	1r
2A	2f	.	.
2r	2e	2g	1b-y
2G	2d	2b-y	.
=27	=27	=27	=27
2A	2r	2a	2cc
2c	2c	2g	2ee
2B-y	2d	2r	2dd
[2A	2f	2f	2cc
=28	=28	=28	=28
4A]	2e	2g	2r
8GL	.	.	.
8FJ	.	.	.
2G	2.d	2b-y	2b-y
2A	.	2a	2cc
.	8cL	.	.
.	8B-yJ	.	.
2c	2c	(2g	2ee
=29	=29	=29	=29
2B-y	2d	4g)	2dd
.	.	8fL	.
.	.	8eJ	.
2A	2f	2f	2.cc
1G	2e	2g	.
.	.	.	8bniL
.	.	.	8aJ
.	2d	2b-y	2bni
=30	=30	=30	=30
[0Cl	[0cl	2a	[0ccl
.	.	[1.gl	.
=31	=31	=31	=31
00C]	00c]	00g]	00cc]
==	==	==	==
*-	*-	*-	*-
!!!system-decoration: [*]
!!!RDF**kern: i = editorial accidental
!!!RDF**kern: l = terminal long
!!!ENC: Benjamin Ory
!!!END: 2021/1/6
!!!EED: Benjamin Ory
!!!EEV: 2021/05/02
!!!YEC: Copyright 2021 Benjamin Ory, All Rights Reserved
!!!ONB: Translated from MusicXML on 2021/05/02
